static/logos/framer-wordmark-color.svg

<svg width="100" height="28" viewBox="0 0 100 28" fill="none" xmlns="http://www.w3.org/2000/svg">
<g clip-path="url(#clip0_1_2718)">
<path d="M0 8.9581H8.96987L18.146 18.1221H8.96987V27.2861L0 18.1221V8.9581ZM0 0H18.146V8.9581H8.96987L0 0Z" fill="black"/>
<path d="M35.2188 19.3558V5.77991H43.5524V8.51572H38.3567V12.0775H43.5524V14.7617H38.3567V19.3558H35.2188Z" fill="black"/>
<path d="M45.4297 19.3557V10.0175H48.5531V12.1212C48.6043 11.4541 48.9115 10.8897 49.3725 10.428C49.8332 10.0175 50.4478 9.81226 51.0623 9.81226C51.4719 9.81226 51.6767 10.0175 51.8815 10.0175V12.7369H51.0623C50.3453 12.6342 49.6285 12.9934 49.1676 13.5578C48.758 13.9683 48.5531 14.7892 48.5531 15.8155V19.3557H45.4297Z" fill="black"/>
<path d="M57.7321 17.2979C58.3979 17.4004 59.0635 17.0416 59.3709 16.4776C59.7806 16.016 59.9855 15.4522 59.9855 14.8368C59.9855 14.1703 59.7806 13.5038 59.3709 12.9911C58.9611 12.5296 58.3465 12.3246 57.7321 12.3758C57.1175 12.3758 56.5029 12.5809 56.042 12.9911C55.6322 13.5038 55.3762 14.1703 55.4274 14.8368C55.4274 15.4522 55.6322 16.0674 56.042 16.4776C56.4517 16.9902 57.0663 17.2979 57.7321 17.2979ZM56.9126 19.759C55.6322 19.759 54.4544 19.2463 53.5837 18.3233C52.8667 17.2979 52.5082 16.0674 52.5595 14.7857C52.5595 13.9653 52.7131 13.0936 52.9693 12.3246C53.3277 11.5555 53.9423 10.9402 54.608 10.4275C55.2738 10.0173 56.0932 9.81226 56.9126 9.81226C57.5272 9.86354 58.193 9.96608 58.7563 10.2224C59.2684 10.4788 59.6269 10.9402 59.7806 11.4529V9.96608H62.9045V19.2975H59.7806V18.0669C59.5246 18.5284 59.166 18.9386 58.7563 19.2975C58.193 19.6051 57.5784 19.7076 56.9126 19.759Z" fill="black"/>
<path d="M65.3281 19.3865V9.96752H68.2569V11.4684C68.4623 10.8473 68.8734 10.6403 69.2845 10.2263C69.7983 9.96752 70.3635 9.86401 70.98 9.81226C72.4187 9.81226 73.4976 10.4333 73.9087 11.5201C74.3197 11.1061 74.7308 10.6921 75.1418 10.278C75.7584 10.0193 76.375 9.91577 77.0429 9.86401C79.3036 9.86401 80.3825 11.1061 80.3825 13.642V19.4901H77.4539V14.1595C77.4539 13.642 77.2998 13.1245 77.0429 12.7104C76.7346 12.4517 76.3749 12.2964 75.964 12.2964C75.4501 12.2447 74.9877 12.5034 74.7308 12.9174C74.4225 13.435 74.2684 14.0043 74.3197 14.5736V19.3865H71.3911V14.1595C71.3911 13.642 71.237 13.1245 70.98 12.7104C70.7231 12.4517 70.312 12.2964 69.9525 12.2964C69.4901 12.3482 69.0275 12.5552 68.7193 12.9174C68.411 13.435 68.2569 14.0043 68.3082 14.5736V19.3865H65.3281Z" fill="black"/>
<path d="M84.8682 13.7334H88.8799C88.8799 13.214 88.7237 12.6945 88.4632 12.279C88.0464 11.8634 87.6296 11.8634 87.0044 11.8634C86.4312 11.8634 85.8582 12.0193 85.3371 12.279C85.0246 12.6945 84.8682 13.214 84.8682 13.7334ZM91.7976 14.149V15.6033H84.8162C84.8162 16.1747 85.0246 16.6942 85.4414 17.0579C85.8582 17.3696 86.3791 17.5253 86.9001 17.4734C87.9421 17.4734 88.3589 17.2656 88.7758 16.6423H91.7455C91.5371 17.6293 90.9119 18.4603 90.0783 18.9278C89.0883 19.4473 87.9942 19.7589 86.9001 19.7589C85.233 19.7589 83.9305 19.3435 83.0969 18.3045C82.1591 17.3696 81.5859 16.0709 81.5859 14.7203C81.5859 13.3178 82.107 11.9673 83.0969 10.9284C83.9305 10.0973 85.1809 9.68177 86.9001 9.68177C88.2026 9.62983 89.5051 10.0973 90.4951 10.9284C91.3808 11.8115 91.8497 12.9543 91.7976 14.149Z" fill="black"/>
<path d="M93.4219 19.3557V10.0175H96.3639V12.1212C96.5703 11.5055 96.9316 10.941 97.3962 10.428C97.8607 10.0175 98.4285 9.81226 99.0478 9.81226C99.2543 9.81226 99.6673 10.0175 99.8736 10.0175V12.7369H98.8413C98.1704 12.6855 97.5511 13.0447 97.1897 13.5578C96.5704 13.9683 96.3639 14.7892 96.3639 15.8155V19.3557H93.4219Z" fill="black"/>
</g>
<defs>
<clipPath id="clip0_1_2718">
<rect width="100" height="27.2861" fill="white"/>
</clipPath>
</defs>
</svg>

<svg xmlns="http://www.w3.org/2000/svg" width="228.571" height="64" fill="none" viewBox="0 0 100 28"><g fill="#000" clip-path="url(#a)"><path d="M0 8.958h8.97l9.176 9.164H8.97v9.164L0 18.122V8.958ZM0 0h18.146v8.958H8.97L0 0ZM35.219 19.356V5.78h8.333v2.736h-5.195v3.562h5.195v2.684h-5.195v4.594h-3.138ZM45.43 19.356v-9.339h3.123v2.104c.051-.667.358-1.231.82-1.693.46-.41 1.075-.616 1.69-.616.409 0 .614.206.819.206v2.719h-.82c-.717-.103-1.433.256-1.894.82-.41.411-.615 1.232-.615 2.258v3.54H45.43ZM57.732 17.298a1.622 1.622 0 0 0 1.639-.82 2.42 2.42 0 0 0 .614-1.641c0-.667-.204-1.333-.614-1.846-.41-.461-1.025-.666-1.639-.615-.614 0-1.23.205-1.69.615-.41.513-.666 1.18-.615 1.846 0 .615.205 1.23.615 1.64a2.16 2.16 0 0 0 1.69.82Zm-.82 2.461a4.528 4.528 0 0 1-3.328-1.436 5.738 5.738 0 0 1-1.025-3.537c0-.82.154-1.692.41-2.461.359-.77.973-1.385 1.639-1.897.666-.41 1.485-.616 2.305-.616.614.052 1.28.154 1.843.41.512.257.87.718 1.025 1.23V9.967h3.123v9.332h-3.123v-1.231a4.684 4.684 0 0 1-1.025 1.23c-.563.308-1.178.41-1.843.462ZM65.328 19.387v-9.42h2.929v1.501c.205-.62.616-.828 1.027-1.242.514-.258 1.08-.362 1.696-.414 1.439 0 2.518.621 2.929 1.708l1.233-1.242c.616-.259 1.233-.362 1.9-.414 2.262 0 3.34 1.242 3.34 3.778v5.848h-2.928v-5.33c0-.518-.154-1.036-.411-1.45-.308-.258-.668-.414-1.079-.414a1.295 1.295 0 0 0-1.233.621c-.308.518-.463 1.087-.411 1.657v4.813H71.39v-5.228c0-.517-.154-1.035-.411-1.449a1.522 1.522 0 0 0-1.028-.414c-.462.052-.924.26-1.233.621-.308.518-.462 1.087-.41 1.657v4.813h-2.98ZM84.868 13.733h4.012c0-.519-.156-1.039-.417-1.454-.417-.416-.833-.416-1.459-.416a3.77 3.77 0 0 0-1.667.416 2.425 2.425 0 0 0-.469 1.454Zm6.93.416v1.454h-6.982c0 .572.209 1.091.625 1.455.417.312.938.467 1.46.415 1.041 0 1.458-.207 1.875-.83h2.97a3.44 3.44 0 0 1-1.668 2.285c-.99.52-2.084.83-3.178.83-1.667 0-2.97-.415-3.803-1.453-.938-.935-1.511-2.234-1.511-3.585 0-1.402.521-2.753 1.51-3.792.834-.83 2.085-1.246 3.804-1.246 1.303-.052 2.605.415 3.595 1.246.886.883 1.355 2.026 1.303 3.221ZM93.422 19.356v-9.339h2.942v2.104c.206-.616.568-1.18 1.032-1.693a2.443 2.443 0 0 1 1.652-.616c.206 0 .62.206.826.206v2.719H98.84c-.67-.052-1.29.308-1.651.82-.62.411-.826 1.232-.826 2.258v3.54h-2.942Z"/></g><defs><clipPath id="a"><path fill="#fff" d="M0 0h100v27.286H0z"/></clipPath></defs></svg>
